X:1
T:Jingle bells ragtime
T:Jingle Bell Rag
T:Written by J. Pierpont Arranged by Carol Klose Re-Arranged by Robert Tetreault 
C:J. Pierpont
Z:Arranged by Robert Tetreault
%%score { 1 | 2 }
L:1/8
Q:1/4=180
M:4/4
K:C
V:1 treble nm="Piano" snm="Pno."
V:2 bass 
V:1
 (gag e2 c A2) | (GAG E2 C A,2) | z2 .[Bg]2 .[ca]2 .[^c^a]2 | .[db]2 z2!8va(! [bg']2 z2!8va)! | %4
 .G2 .[Ge]2 .[Fd]2 .[Ec]2 | [EG]4- [EG]EF^F | .G2 .[Ge]2 .[Fd]2 .[Ec]2 | [FA]4- [FA]FG^G | %8
 .A2 .[Af]2 .[Ge]2 .[Fd]2 | [GB]4- [GB]ef^f | bab a2 ^g =g2 | g2 [bg']2 z EF^F | %12
 .G2 .[Ge]2 .[Fd]2 .[Ec]2 | [EG]4- [EG]EF^F | .G2 .[Ge]2 .[Fd]2 .[Ec]2 | [FA]4- [FA]FG^G | %16
 Acg [_Af]2 cd^d | ecA G2 ef^f | gBg [Af]2 [Ge] [Fd]2 | [Ec]4 z4 || [Ge]^d[Ge] [Ge]2 Gc=d | %21
 [Ge]^d[Ge] [Ge]2 Gc=d | [Ge]^d[Ge]g [Ac] [_A=d]3 | [Ge]4- [Ge]cde | %24
 [Af]e[Af] [Af]2 [Ac][Ad][A^d] | eGe [Ac]2 cdc | [Ae]_e[Ad] [Ac]2 Ac=e | [Bd]edB AG z2 | %28
 [Ge]^d[Ge] [Ge]2 Gc=d | [Ge]^d[Ge] [Ge]2 Gc=d | [Ge]^d[Ge]g [Ac] [_A=d]3 | [Ge]4- [Ge]cde | %32
 [Af]e[Af] [_Af]2 cd^d | e2 g [^ca]2 gfe | [cg]^fg [B=f]2 e d2 | %35
!8va(! [c'g']^f'g' [b=f']2 e' d'2!8va)! | [cg]^fg[B=f]- [Bf][dg][ea][fb] | %37
 [ec']2 z2!8va(! [e'c'']2 z2!8va)! |] %38
V:2
 z8 | z8 | G,8 | G,2 z2 G,,2 z2 | .C,2 .G,2 .G,,2 .G,2 | E,F,^F, G,3 .G,,2 | .C,2 .G,2 .G,,2 .G,2 | %7
 F,G,^G, A,3 .C,2 | .F,2 .C2 .C,2 .C2 | G,A,^A, B,4- B, | G,3 B,,3- B,,2 | .C,2 .G,,2 .A,,2 .B,,2 | %12
 .C,2 .G,2 .G,,2 .G,2 | E,F,^F, G,3 .G,,2 | .C,2 .G,2 .G,,2 .G,2 | F,G,^G, A,3- A,2 | %16
 [F,C]3 [F,B,]4- [F,B,] | [E,C]3 [E,G,C]- [E,G,C]4 | D,3 G,- G,4 | .C,2 .G,,2 .A,,2 .B,,2 || %20
 .C,2 .[G,C]2 .G,,2 .[G,C]2 | .C,2 .[G,C]2 .G,,2 .[G,C]2 | .C,2 .[G,C]2 F, F,3 | %23
 E,CA, G,3 [_B,C]2 | .F,2 .[A,C]2 .F,2 .[_A,C]2 | [G,C]3 [A,E]- [A,E]4 | D,2 [^F,C]2 [F,C]4 | %27
 G,2 z2 G,,2 A,,B,, | .C,2 .[G,C]2 .G,,2 .[G,C]2 | .C,2 .[G,C]2 .G,,2 .[G,C]2 | %30
 .C,2 .[G,C]2 F, F,3 | E,CA, G,3 [_B,C]2 | .[F,A,C]2 .[F,A,C] .[F,_A,C]2 .[F,A,C]3 | %33
 [G,C]3 [A,E]- [A,E]4 | .D,2 .[A,C]2 G,4 | .D,2 .[A,C]2 G,4 | .D,2 .[A,D]2 G,F,E,D, | %37
 C,2 z2 C,,2 z2 |] %38

